svg/color/burn.svg

<?xml version="1.0" encoding="UTF-8" ?>
<!DOCTYPE svg PUBLIC "-//W3C//DTD SVG 1.1//EN" "http://www.w3.org/Graphics/SVG/1.1/DTD/svg11.dtd">
<svg width="250pt" height="250pt" viewBox="0 0 250 250" version="1.1" xmlns="http://www.w3.org/2000/svg">
<g id="#ffffffff">
<path fill="#ffffff" opacity="1.00" d=" M 0.00 0.00 L 250.00 0.00 L 250.00 250.00 L 0.00 250.00 L 0.00 0.00 M 106.49 20.87 C 98.28 21.93 90.25 24.09 82.62 27.31 C 63.11 35.21 47.59 50.88 37.17 68.91 C 24.50 90.45 19.37 116.12 21.97 140.92 C 24.60 163.69 36.03 184.81 51.70 201.30 C 67.57 218.89 90.41 229.84 114.01 231.49 C 125.64 232.03 137.43 232.04 148.77 229.11 C 175.65 223.40 198.88 205.90 214.86 183.92 C 224.58 170.52 231.79 154.74 232.98 138.07 C 236.18 111.58 229.79 84.11 215.18 61.77 C 203.49 43.30 184.38 30.15 163.38 24.52 C 144.92 19.67 125.43 18.17 106.49 20.87 Z" />
<path fill="#ffffff" opacity="1.00" d=" M 64.01 64.05 C 81.12 51.30 102.96 46.40 124.00 46.30 C 143.47 45.71 163.58 48.45 180.95 57.74 C 198.58 66.94 212.04 83.46 218.05 102.36 C 218.48 103.66 218.75 104.99 218.86 106.36 C 157.65 106.24 96.45 106.24 35.24 106.36 C 39.89 89.64 49.80 74.21 64.01 64.05 Z" />
<path fill="#ffffff" opacity="1.00" d=" M 33.50 112.47 C 96.11 112.51 158.73 112.57 221.34 112.44 C 221.32 114.58 221.53 116.71 221.82 118.83 C 158.88 118.91 95.95 118.88 33.02 118.85 C 33.19 116.72 33.35 114.60 33.50 112.47 Z" />
<path fill="#ffffff" opacity="1.00" d=" M 31.69 130.28 C 60.47 129.55 89.23 130.32 118.00 129.88 C 141.34 130.06 164.67 129.97 188.00 130.00 C 199.53 130.18 211.09 129.58 222.61 130.39 C 221.62 132.97 221.22 135.72 220.59 138.40 C 157.66 138.30 94.72 138.56 31.78 138.27 C 31.81 135.61 31.79 132.94 31.69 130.28 Z" />
<path fill="#ffffff" opacity="1.00" d=" M 33.41 144.60 C 95.19 144.56 156.98 144.67 218.76 144.55 C 212.84 165.77 197.53 184.14 177.82 193.96 C 160.40 203.00 140.40 205.48 121.01 205.45 C 99.76 205.12 77.55 200.93 60.28 187.80 C 46.11 177.55 37.20 161.45 33.41 144.60 Z" />
</g>
<g id="#010101ff">
<path fill="#010101" opacity="1.00" d=" M 106.49 20.87 C 125.43 18.17 144.92 19.67 163.38 24.52 C 184.38 30.15 203.49 43.30 215.18 61.77 C 229.79 84.11 236.18 111.58 232.98 138.07 C 231.79 154.74 224.58 170.52 214.86 183.92 C 198.88 205.90 175.65 223.40 148.77 229.11 C 137.43 232.04 125.64 232.03 114.01 231.49 C 90.41 229.84 67.57 218.89 51.70 201.30 C 36.03 184.81 24.60 163.69 21.97 140.92 C 19.37 116.12 24.50 90.45 37.17 68.91 C 47.59 50.88 63.11 35.21 82.62 27.31 C 90.25 24.09 98.28 21.93 106.49 20.87 M 64.01 64.05 C 49.80 74.21 39.89 89.64 35.24 106.36 C 96.45 106.24 157.65 106.24 218.86 106.36 C 218.75 104.99 218.48 103.66 218.05 102.36 C 212.04 83.46 198.58 66.94 180.95 57.74 C 163.58 48.45 143.47 45.71 124.00 46.30 C 102.96 46.40 81.12 51.30 64.01 64.05 M 33.50 112.47 C 33.35 114.60 33.19 116.72 33.02 118.85 C 95.95 118.88 158.88 118.91 221.82 118.83 C 221.53 116.71 221.32 114.58 221.34 112.44 C 158.73 112.57 96.11 112.51 33.50 112.47 M 31.69 130.28 C 31.79 132.94 31.81 135.61 31.78 138.27 C 94.72 138.56 157.66 138.30 220.59 138.40 C 221.22 135.72 221.62 132.97 222.61 130.39 C 211.09 129.58 199.53 130.18 188.00 130.00 C 164.67 129.97 141.34 130.06 118.00 129.88 C 89.23 130.32 60.47 129.55 31.69 130.28 M 33.41 144.60 C 37.20 161.45 46.11 177.55 60.28 187.80 C 77.55 200.93 99.76 205.12 121.01 205.45 C 140.40 205.48 160.40 203.00 177.82 193.96 C 197.53 184.14 212.84 165.77 218.76 144.55 C 156.98 144.67 95.19 144.56 33.41 144.60 Z" />
</g>
</svg>

<?xml version="1.0" encoding="utf-8"?>
<!-- Generator: Adobe Illustrator 26.0.3, SVG Export Plug-In . SVG Version: 6.00 Build 0)  -->
<svg version="1.1" id="Layer_1" xmlns="http://www.w3.org/2000/svg" xmlns:xlink="http://www.w3.org/1999/xlink" x="0px" y="0px"
	 viewBox="0 0 250 250" style="enable-background:new 0 0 250 250;" xml:space="preserve">
<style type="text/css">
	.st0{fill:#FFFFFF;}
	.st1{fill:#010101;}
</style>
<g id="_x23_ffffffff">
	<path class="st0" d="M64,64.1c17.1-12.8,38.9-17.7,60-17.8c19.5-0.6,39.6,2.2,56.9,11.4c17.6,9.2,31.1,25.7,37.1,44.6
		c0.4,1.3,0.7,2.6,0.8,4c-61.2-0.1-122.4-0.1-183.6,0C39.9,89.6,49.8,74.2,64,64.1z"/>
	<path class="st0" d="M33.5,112.5c62.6,0,125.2,0.1,187.8,0c0,2.1,0.2,4.3,0.5,6.4c-62.9,0.1-125.9,0-188.8,0
		C33.2,116.7,33.3,114.6,33.5,112.5z"/>
	<path class="st0" d="M31.7,130.3c28.8-0.7,57.5,0,86.3-0.4c23.3,0.2,46.7,0.1,70,0.1c11.5,0.2,23.1-0.4,34.6,0.4
		c-1,2.6-1.4,5.3-2,8c-62.9-0.1-125.9,0.2-188.8-0.1C31.8,135.6,31.8,132.9,31.7,130.3z"/>
	<path class="st0" d="M33.4,144.6c61.8,0,123.6,0.1,185.3-0.1c-5.9,21.2-21.2,39.6-40.9,49.4c-17.4,9-37.4,11.5-56.8,11.5
		c-21.2-0.3-43.5-4.5-60.7-17.6C46.1,177.6,37.2,161.4,33.4,144.6z"/>
</g>
<g id="_x23_010101ff">
	<path class="st1" d="M106.5,20.9c18.9-2.7,38.4-1.2,56.9,3.6c21,5.6,40.1,18.8,51.8,37.2c14.6,22.3,21,49.8,17.8,76.3
		c-1.2,16.7-8.4,32.4-18.1,45.8c-16,22-39.2,39.5-66.1,45.2c-11.3,2.9-23.1,2.9-34.8,2.4c-23.6-1.7-46.4-12.6-62.3-30.2
		C36,184.8,24.6,163.7,22,140.9c-2.6-24.8,2.5-50.5,15.2-72c10.4-18,25.9-33.7,45.5-41.6C90.2,24.1,98.3,21.9,106.5,20.9 M64,64.1
		c-14.2,10.2-24.1,25.6-28.8,42.3c61.2-0.1,122.4-0.1,183.6,0c-0.1-1.4-0.4-2.7-0.8-4c-6-18.9-19.5-35.4-37.1-44.6
		c-17.4-9.3-37.5-12-56.9-11.4C103,46.4,81.1,51.3,64,64.1 M33.5,112.5c-0.2,2.1-0.3,4.2-0.5,6.4c62.9,0,125.9,0.1,188.8,0
		c-0.3-2.1-0.5-4.2-0.5-6.4C158.7,112.6,96.1,112.5,33.5,112.5 M31.7,130.3c0.1,2.7,0.1,5.3,0.1,8c62.9,0.3,125.9,0,188.8,0.1
		c0.6-2.7,1-5.4,2-8c-11.5-0.8-23.1-0.2-34.6-0.4c-23.3,0-46.7,0.1-70-0.1C89.2,130.3,60.5,129.6,31.7,130.3 M33.4,144.6
		c3.8,16.8,12.7,32.9,26.9,43.2c17.3,13.1,39.5,17.3,60.7,17.6c19.4,0,39.4-2.4,56.8-11.5c19.7-9.8,35-28.2,40.9-49.4
		C157,144.7,95.2,144.6,33.4,144.6z"/>
</g>
</svg>
